X:581
T:Reel 581
M:4/4
K:Amix
L:1/8
GF|EA, (3A,A,A, E2DC|B,A,G,A, B,CDB,|EA, (3A,A,A, EGFA|GEDB, A,2CD|EA, (3A,A,A,  (3EFG DC|B,G,B,G, GFGA|BAGA EFGA|BEFG GABAGF|EA, (3A,A,A, GEFA|GEDB, G,A,B,D|GABG AGFA|GEDB, A,2CD|EA (3AGA BAAG|EAAF GEDF|EGFA GFGA|BEDB, A,2|
